X: 302
T:Humors of Loughrae
M:4/4
L:1/8
N:HUMOURS OF LOUGHREA, THE. AKA - "Humours of Lough Reagh/Lough Ree." AKA
N:and see "The Castlebar
N:Traveller," "The Gossan that beat his father," "The Laurel Bush,"
N:"Lough
N:Aisles Return," "The Reel of Bogie," "The Shores of
N:Lough Reagh," "The Showman's Reel," "Spence's Reel," "Tommy Whelan's,"
N:"Tuehey's Reel," "The West Gale," "The
N:Yeoman's Reel." Irish, Reel. G Major. Standard. AA'B (Taylor): AABB
N:(Flaherty). Editor Taylor notes the tune has been a
N:popular session piece, especially with flute players. Source for
N:notated
N:version: fiddler player Philip Duffy (b. 1966) [Flaherty].
N:Flaherty (Trip to Sligo), 1990; pg. 26 (appears as "Unknown"). Bulmer &amp;
N:Sharpley (Music from Ireland), 1974, Vol. 3, No.
N:14. T
Z:Thomas A. Madden
K:G
DE|~G3A BA~A2|bgag egdB|GFGA BAGE|ABAG EGDE| ~G3A BA~A2|
bgag egdB|GFGA BAGE|ABAG E2||
ef|gfeg fdBd|~g2 ef gaba|ge~e2 edBd|ea~a2 ag e2| gfeg fdBd|~g2 ef gaba|
gfge agaf|dgbg egdB||
<end>
<start>
